lib/assets/buttons/media_item_net.svg

<svg height="24" viewBox="0 0 24 24" width="24" xmlns="http://www.w3.org/2000/svg">
    <path d="m7 15h2v3h2v-3h2v3h2v-3h2v3h2v-9h-4v-3h-6v3h-4v9h2zm-2.62-12h15.25c1.31 0 2.37 1.06 2.37 2.38v14.25a2.37 2.37 0 0 1 -2.37 2.37h-15.25c-1.32 0-2.38-1.06-2.38-2.37v-14.25c0-1.32 1.06-2.38 2.38-2.38z" />
</svg>

<?xml version="1.0" encoding="UTF-8"?><!DOCTYPE svg PUBLIC "-//W3C//DTD SVG 1.1//EN" "http://www.w3.org/Graphics/SVG/1.1/DTD/svg11.dtd"><svg xmlns="http://www.w3.org/2000/svg" xmlns:xlink="http://www.w3.org/1999/xlink" version="1.1" width="24" height="24" viewBox="0 0 24 24"><path d="M7,15H9V18H11V15H13V18H15V15H17V18H19V9H15V6H9V9H5V18H7V15M4.38,3H19.63C20.94,3 22,4.06 22,5.38V19.63A2.37,2.37 0 0,1 19.63,22H4.38C3.06,22 2,20.94 2,19.63V5.38C2,4.06 3.06,3 4.38,3Z" /></svg>
